X: 1
T: Lighthouse Keeper's
M: 3/4
L: 1/4
R: waltz
K: Amaj
|:zcd |e>ce |dc~B | A>ce |f>ga |e>cA| ~f>ed | d<cA| ~B2 c/d/|
e>ce |d<cB | A>ce |f>ga | e<cA|1 dcB | A3 :|2 d<BG |A3 ||
zag | f>ed |c<ec | B>cd |cag | ~f>ed |c<a g/f/ | e>cA B3 |
|: f>ga |e>ga | ~f<ed |c<eE | F<dc| B>AG | A3 |1 zag :|2z3
